-----BEGIN PGP PUBLIC KEY BLOCK-----

mQINBGi5Ay0BEACjdSLUpXh+QcCIJhnzLfzqNz+HrG5dEQgC6HWpH50YsLCr+i00
vCiSyR59TTjz+/k94r01FafC0Yr13OzOYXziDJFEazaHLHCc8Xr+Sn1d4BMSQJA4
Mkw686pL4hN+MO3TGB6bPLr525LnYrhiqYSis7yC5QBwKz1XM4/A96XnmxjxXK7k
emGrEaEWsxOYmAwA4ZZQzLCaMFWwabNny9hpj7d5MDqrJ5n9tbmdkjB2cuZzwD9Z
t4dxYnN7RuWNqAqCtpq25OXWH6SYDVznXFl7mUEpTG/MRhIZWETNbQ84pbT4DCO9
HDmdG3hNFvgX4Xw87eZHRFSY6xfSyhJOoxy8+VILYGWcKoI9CQLowT/VWLI+aAY5
UczhCGa79B9s67r7U17Jzrv4vsifUVwhxwiYY1FBmaQsuIK1cK2zO8X9AeWfDQka
2r5p2JFdsScYH1AxGNoLzjctH5dF+eQGYqt9DAfuyQwj7pZVtwBZEOZxpMNizkzM
d21JOm3VqQTYoN909NIJhvXzxq3bKSQ28VE20f1BOxtL98cDm8am1U1wIS46K4QV
BhX1ntBq/KeDoKGFc6zbqMdxU9EwYN1m0uKpxeVIN0hFiPriapNI27x8eaH6/8fe
Y7xa2dq/FJ3Lbq/nuIVOCJcLcNhyB/D4fZ4h/L6ZNqpDaMfRwFN5yBAACQARAQAB
tDlzaGlueSAoQml0Y29pbiBLbm90cyBhdHRlc3RhdGlvbnMpIDxiaWdzaGlueTkw
QGdtYWlsLmNvbT6JAlQEEwEKAD4WIQQdcMvktCI5RFYX0z3TFsgUAYW2RwUCaLkD
LQIbAwUJAeEzgAULCQgHAgYVCgkICwIEFgIDAQIeAQIXgAAKCRDTFsgUAYW2R4r4
D/0T88wkmYEQ4aiZxtEh+2o2vrXIoZwqPMpcdbOW7v5eJ6icZoi5Mdl1sxebd0BC
wwX6c9GDFjaGGm/gvCYTXBbmhd7a9s7WxbRvqXfUH44+UEKIgbNrQZXdUb1d0rmf
mfNtXSoE41hkIlakF+eXEbSG7wrWNK2pMTR42ssCplFZZGtKRbCws2KvW30pYD15
8ey2NOsWUuBJT0hsTZ6uAztEpUEPipBDBUW1BO1yvku6ZQViYZsntxefjNxMok09
Jcj2EKVtrXxvXqMuY7BeY+zFwqA4G1qC3GLg/PxsckcFgGSQebochruj3UA5xx18
zvM+x0fpqPOKSbtpRn4YI8qSARu2g56d3OVjllahat93449lUwwxyR8rpftGeDZ6
WgHRFoqJIANlQsCDs7WahCxHjZpbfQmB2ySzVASwDwvwCWgChEYYaNN+WoHhck5l
k+5TpCgwRrkM7GPTpV5aDjjyDyxDmG1dwokQo3JIu3YzzrFc3wCZ8awRKtSp0A6B
kZ1SLPxExrYMLQJ2neyyV1t6ro1GDyMdRgURvBm2rKy/JwyRN1egHFSi6/XFlbkM
cS2iKidLO6pklkgHMXiXQ2C7+COBggb0TpA9f2P2W2KSGef9fS9EggltkfMyvfv+
PbEKdgNkwKsnMydBwEOuUqXHEwxtE9NTZ2URMi1kz0AulbkCDQRouQMtARAAtvcx
e6AG+EEyHS/xSKbbw8B9IPqmEKiqArGtpRowS5iFt7YIejrlnZbHfDViFKZbJZbz
MZZ54lUhTEu95MK06v8H4MlJR2822vqh6jb+pCzj+Gb81PQTxS5waSDby6tVW79N
7pRIV+bpCXqGAKp+7JxCQDW1yCSrK5m8QmmAwXE+HfH/YhxRnRB0okJx7TRTZ0DJ
y05O3aCdsQYVWBmxZ204vY6UKe85+UK82rTtqq/0Dr7Rr3BT5+37W+Bxd8A6Sf1V
cyA9mJ5eIYLd+X1mywURrt8dUFiUED+KV+byywDlMmZTxlLXafeSINO/PYgBsOGc
GHfigEw+FKTPBorNBffcTKFS7yo3p2/glukXggjpIPZ3t528E51PY5s0REQ7YZAD
tLsNQ266KLzbuBRYXS/z7Gws/713Abn49qa0pePr4n4vl0+WTRCsQCXunlM759eo
JkM6PYpjIn31BoSf5hDwp48dpG4CWFUl67ZaxEVQ3HJwdMvVr2Wzcf06fcM4YOWe
QPA/x/5YUQf58iZVRpbOviTbNOQDSFV4hCbF1MjRT+XR6MEspXUdnRJ7RcU9Qugz
dQh0GA6mNgi0irQNvmQp0d4qhyodtGzH6AN/c81ATtx578d7cz8J8if20CbDh3S0
2lKpWlipsUNyxhXHTubV5sJGeTRegh4J1mixnTUAEQEAAYkCPAQYAQoAJhYhBB1w
y+S0IjlEVhfTPdMWyBQBhbZHBQJouQMtAhsMBQkB4TOAAAoJENMWyBQBhbZHy48P
/Rmkpss8JhQMnOlJQtf6e9h2tE7lOcRVncfuFM8yL40W2/eS7hwspLR4/eBYHwVI
nJFroGJOFTWOjV8hjtXWSHnPpUJuTxBhElWdDsPFeO8ye9ihEQ9z85MgKu79NwYW
MY1jzbHik0NLKmEIgWTsTDZIj4h9ffbvXyUCWV1D6LSRCzP1CJkVDWfJLAvk1SAk
eYrqIq3tVQ/PVxo3jCHJnSGYHiUdentnUrnkLB7PvbTDwep6kAtf5w7ciWojFO/3
jzat8RQ21VmalGnfrXaDdl7ASCK78+C34rYy6kK7i55fL9N/g8tgJC4iFMrG1lrP
DIvByHfGW2Omw/C1nPS+W5VJ0GuACsqJ7UgqQg+jed0Fp1tfQ2ftRj5ewKuD86JV
BAl/NFEoQpl/JP/nVhmE8y++btxiMb5CEAwJzIkUiK+fiZUh0jSU0hG7xtV5T+F7
vMWYQsMzS5zNOhigSy1Z8GpFjz3nb9Rw7bbdcq2APxcoPNFPkeXTyoE1U1+KyKT+
0G1xN3ZGP9vJ+jC8r1yHJhukfwCQe9u5+SH9UP4zlAXZD/zcUdMwEqMUP0ENSZtY
cbR/kW04XbXN0h0u5oiFcQ1dO8r8VjmXV37dgfy37L2c8RBJaGvPiE7TXW/vnjmm
eb/bYuZQHhhRrlRs+KHI6VtmdcokJsbbZ5Ktud7oGDFG
=BhEj
-----END PGP PUBLIC KEY BLOCK-----
